X:1
T:James Gibb editions
T:The Lord be with us as we bend - Barnby
%%score [ ( 1 2 ) ( 3 4 ) ]
L:1/8
Q:1/4=80
M:4/4
K:C
V:1 treble nm="Midi_74"
V:2 treble 
V:3 bass nm="Midi_74"
V:4 bass 
V:1
!mp!"^The Lord be with us as we bend""^C.M.""^Joseph Barnby\n(1838-96)""^John Ellerton\n(1826-93)" E2 | %1
 G3 G G2 G2 | G2 c2 A2 || A2 | d2 c2 B2 B2 | A6 ||[M:4/4] A2 |"^i" A3 A B2 c2 | d2 G2 G2 || c2 | %10
 c2 c2 c2 B2 | c6 || c4 c4 |] %13
V:2
 E2 | G3 G G2 G2 | G2 E2 C2 || ^C2 | D2 E2 F2 ED | ^C6 ||[M:4/4] ^C2 | D2 F2 F2 F2 | F2 D2 G2 || %9
 A2 | G2 AG F2 F2 | E6 || F4 E4 |] %13
V:3
 E,2 | G,3 G, G,2 G,2 | C2 G,2 A,2 || G,2 | A,2 A,2 A,2 ^G,2 | A,6 || %6
[M:4/4]"^1 The Lord be with us as we bend\nHis blessing to receive;\nHis gift of peace on us descend\nBefore His courts we leave.\n\n2 The Lord be with us as we walk\nAlong our homeward road;\nIn silent thought or friendly talk\nOur hearts be near to God." G,2 | %7
 F,2 A,2 D2 A,2 | G,2 B,2 C2 || CD | %10
"^3 The Lord be with us till the night\nShall close the day of rest;\nBe He of every heart the Light,\nOf every home the Guest.\n\n4 The Lord be with us through the hours\nOf slumber, calm and deep;\nProtect our homes, renew our powers,\nAnd guard His people's sleep." E2 FE D2 D2 | %11
 C6 || A,4 G,4 |] %13
V:4
 E,2 | G,3 G, G,2 G,2 | E,2 C,2 F,2 || E,2 | F,2 E,2 D,2 E,2 | A,,6 ||[M:4/4] A,,2 | %7
 D,2 D,2 D,2 C,2 | B,,2 F,2 E,2 || F,2 | G,2 G,2 G,,2 G,,2 | C,6 || F,4 C,4 |] %13

